X:1
T:Bridget Flynn
M:6/8
L:1/4
K:G
 E3/2 F/2| G3/2 G E/2| F3/2 F D/2| E F/2 E D/2| B,3/2 E F/2| G3/2 G E/2|\
 F F/2 F D/2| E3/2 E F/2| G3/2 G E/2| F3/2 F D/2| E F/2 E D/2| B,3/2 E F/2|\
 G3/2 G E/2| F3/2 F3/2| E3-| E3/2 G A/2| B3/2 F G/2| A3/2 E F/2| G G/2 G G/2|\
 G F/2 E ^D/2|
